icons/1_Primary/WPMU DEV.svg

<svg width="1024" height="1024" fill="none" xmlns="http://www.w3.org/2000/svg"><g clip-path="url(#a)"><path d="M512 1024c282.77 0 512-229.23 512-512S794.77 0 512 0 0 229.23 0 512s229.23 512 512 512Z" fill="#728DBE"/><path d="M653.78 558.64V358.22l-32.35 25.28v175.39a17.941 17.941 0 0 1-16.68 18.7 17.69 17.69 0 0 1-16.43-18.7v-93.26a52.062 52.062 0 0 0-49-54.59 52.06 52.06 0 0 0-48.78 54.84v93a17.691 17.691 0 0 1-16.43 18.7 17.937 17.937 0 0 1-16.68-18.7v-93.25a52.062 52.062 0 0 0-49-54.59 52.056 52.056 0 0 0-35.105 17.531 52.055 52.055 0 0 0-12.895 37.059V666.3l32.28-25.3V465.63a17.69 17.69 0 0 1 16.43-18.7 17.941 17.941 0 0 1 16.68 18.7v93a52.313 52.313 0 0 0 48 54.59 52.309 52.309 0 0 0 49-55.09v-92.5a17.69 17.69 0 0 1 16.43-18.7 17.943 17.943 0 0 1 16.75 18.7v93a52.058 52.058 0 0 0 48.78 54.59 52.309 52.309 0 0 0 49-55.09v.51Zm57.37-241.35a267.376 267.376 0 0 0-57.37-44.73 278.002 278.002 0 0 0-282 0 269.662 269.662 0 0 0-61.92 48.52c-105.38 111.66-100.28 287.61 11.38 393 111.66 105.39 287.61 100.28 393-11.38a278.768 278.768 0 0 0-3-385.39l-.09-.02Zm3 321.21C645.15 749.74 499 784 387.76 714.93a237.06 237.06 0 0 1-112.06-202.8 233.265 233.265 0 0 1 36.65-126.36 236.299 236.299 0 0 1 295.94-89.72 238.836 238.836 0 0 1 101.09 86.18 236.3 236.3 0 0 1 4.8 256.27h-.03Z" fill="#fff"/></g><defs><clipPath id="a"><path fill="#fff" d="M0 0h1024v1024H0z"/></clipPath></defs></svg>

<svg width="1024" height="1024" viewBox="0 0 1024 1024" fill="none" xmlns="http://www.w3.org/2000/svg">
<g clip-path="url(#clip0_2_3960)">
<path d="M512 1024C794.77 1024 1024 794.77 1024 512C1024 229.23 794.77 0 512 0C229.23 0 0 229.23 0 512C0 794.77 229.23 1024 512 1024Z" fill="#728DBE"/>
<path d="M653.78 558.64V358.22L621.43 383.5V558.89C621.639 563.567 620.012 568.141 616.896 571.635C613.779 575.129 609.42 577.266 604.75 577.59C600.1 577.266 595.766 575.121 592.689 571.619C589.613 568.117 588.042 563.543 588.32 558.89V465.63C589.01 451.906 584.247 438.465 575.068 428.239C565.889 418.013 553.039 411.831 539.32 411.04C525.594 411.886 512.761 418.127 503.622 428.402C494.482 438.676 489.779 452.15 490.54 465.88V558.88C490.817 563.533 489.247 568.107 486.17 571.609C483.094 575.111 478.76 577.256 474.11 577.58C469.439 577.256 465.08 575.119 461.964 571.625C458.847 568.131 457.22 563.557 457.43 558.88V465.63C458.12 451.906 453.357 438.465 444.178 428.239C434.999 418.013 422.149 411.831 408.43 411.04C394.889 412.081 382.292 418.372 373.325 428.571C364.357 438.769 359.73 452.068 360.43 465.63V666.3L392.71 641V465.63C392.432 460.977 394.003 456.403 397.079 452.901C400.156 449.4 404.49 447.254 409.14 446.93C413.81 447.254 418.169 449.391 421.286 452.885C424.402 456.379 426.029 460.953 425.82 465.63V558.63C425.184 572.177 429.834 585.441 438.788 595.625C447.743 605.809 460.303 612.118 473.82 613.22C487.606 612.367 500.495 606.096 509.675 595.775C518.855 585.454 523.58 571.922 522.82 558.13V465.63C522.542 460.977 524.113 456.403 527.189 452.901C530.266 449.4 534.6 447.254 539.25 446.93C543.933 447.237 548.309 449.366 551.441 452.862C554.572 456.358 556.209 460.942 556 465.63V558.63C555.308 572.319 560.041 585.728 569.174 595.948C578.306 606.168 591.1 612.374 604.78 613.22C618.566 612.367 631.455 606.096 640.635 595.775C649.815 585.454 654.54 571.922 653.78 558.13V558.64ZM711.15 317.29C694.154 299.836 674.852 284.787 653.78 272.56C611.046 247.411 562.364 234.149 512.78 234.149C463.195 234.149 414.513 247.411 371.78 272.56C348.879 285.62 328.017 301.967 309.86 321.08C204.48 432.74 209.58 608.69 321.24 714.08C432.9 819.47 608.85 814.36 714.24 702.7C763.463 650.436 790.624 581.196 790.065 509.403C789.506 437.611 761.27 368.802 711.24 317.31L711.15 317.29ZM714.15 638.5C645.15 749.74 499 784 387.76 714.93C353.29 693.54 324.885 663.661 305.265 628.154C285.645 592.646 275.465 552.697 275.7 512.13C275.539 467.366 288.262 423.501 312.35 385.77C342.665 337.75 389.26 302.254 443.605 285.778C497.951 269.302 556.413 272.949 608.29 296.05C649.458 314.639 684.511 344.522 709.38 382.23C734.748 419.958 748.694 464.203 749.545 509.658C750.397 555.113 738.117 599.849 714.18 638.5H714.15Z" fill="white"/>
</g>
<defs>
<clipPath id="clip0_2_3960">
<rect width="1024" height="1024" fill="white"/>
</clipPath>
</defs>
</svg>
